!!!id: EG065
!!!page: 179
!!!COM: Anonymous
!!!LYR: Anonymous
!!!PTL@@FR: Chansons Populaires du Canada
!!!OTL@@FR: J'ai vu le loup, le r'nard passer
!!!PUB: G. E. Desbarats
!!!YEM:
!!!PDT: 1865
!!!SMA:
!!!OMD:
!!!AGN-Laforte: (refrain, verses)
!!!AGN-type:
!!!AGN-rime:
**kern	**text	**text	**text	**text	**text	**text	**text	**text	**text
*clefG2	*	*	*	*	*	*	*	*	*
*k[f#,c#,g#]	*	*	*	*	*	*	*	*	*
*A:	*	*	*	*	*	*	*	*	*
*M2/4	*	*	*	*	*	*	*	*	*
*>Refrain	*>Refrain	*>Refrain	*>Refrain	*>Refrain	*>Refrain	*>Refrain	*>Refrain	*>Refrain	*>Refrain
*	*pline:R1Ha	*	*	*	*	*	*	*	*
*	*refrain	*	*	*	*	*	*	*	*
*	*italic	*	*	*	*	*	*	*	*
=1	=1	=1	=1	=1	=1	=1	=1	=1	=1
8cc#	J'ai	.	.	.	.	.	.	.	.
16b/	vu	.	.	.	.	.	.	.	.
16a	le	.	.	.	.	.	.	.	.
8b/	loup,	.	.	.	.	.	.	.	.
8b/	le	.	.	.	.	.	.	.	.
=2	=2	=2	=2	=2	=2	=2	=2	=2	=2
8cc#	r'nard	.	.	.	.	.	.	.	.
16a	et	.	.	.	.	.	.	.	.
16f#	le	.	.	.	.	.	.	.	.
8a	liè-	.	.	.	.	.	.	.	.
8a	-vre	.	.	.	.	.	.	.	.
!!LO:PB:g=original
*	*pline:R1Hb	*	*	*	*	*	*	*	*
=3	=3	=3	=3	=3	=3	=3	=3	=3	=3
8cc#	J'ai	.	.	.	.	.	.	.	.
8b/	vu	.	.	.	.	.	.	.	.
16a	le	.	.	.	.	.	.	.	.
16b/	loup	.	.	.	.	.	.	.	.
8cc#	le	.	.	.	.	.	.	.	.
=4	=4	=4	=4	=4	=4	=4	=4	=4	=4
8a	r'nard	.	.	.	.	.	.	.	.
8f#	pas-	.	.	.	.	.	.	.	.
4a	-ser.	.	.	.	.	.	.	.	.
*	*Xitalic	*	*	*	*	*	*	*	*
*	*Xrefrain	*	*	*	*	*	*	*	*
!LO:TX:a:t=FIN.	!	!	!	!	!	!	!	!	!
*	*v:1	*v:2	*v:3	*v:4	*v:5	*v:6	*v:7	*v:8	*v:9
*	*pline:1	*pline:3r	*pline:4r	*pline:5r	*pline:6r	*pline:7r	*pline:8r	*pline:9r	*pline:10r
==5	==5	==5	==5	==5	==5	==5	==5	==5	==5
8cc#	M'en	Dans	Trois	Deux	Ce-	"Où	"Chez	"Vous	"Et
8b/	re-	mon	ca-	à	-lui	i-	moi,	y	un
16a	-ve-	che-	-va-	che-	d'à	-rons-	Mon-	trouv'-	bon
16b/	-nant	-min	-liers	-val	pied	nous	-sieur,	-rez	lit
8cc#	de	j'ai	fort	et	m'a	ce	si	un	pour
!!LO:PB:g=original
=6	=6	=6	=6	=6	=6	=6	=6	=6	=6
8a	la	ren-	bien	l'autre	de-	soir	vous	bon	vous
8f#	Ven-	-con-	mon-	à	-man-	cou-	vou-	sou-	cou-
4a	-dée,	-tré,	-tés,	pied;	-dé:	-cher?"	-lez."	-per,"	-cher."
*	*pline:2	*pline:2r	*pline:2r	*pline:2r	*pline:2r	*pline:2r	*pline:2r	*pline:2r	*pline:2r
=7	=7	=7	=7	=7	=7	=7	=7	=7	=7
8cc#	J'ai	J'ai	J'ai	J'ai	J'ai	J'ai	J'ai	J'ai	J'ai
8b/	vu	vu	vu	vu	vu	vu	vu	vu	vu
16a	le	le	le	le	le	le	le	le	le
16b/	loup,	loup,	loup,	loup,	loup,	loup,	loup,	loup,	loup,
8cc#	le	le	le	le	le	le	le	le	le
=8	=8	=8	=8	=8	=8	=8	=8	=8	=8
8a	r'nard	r'nard	r'nard	r'nard	r'nard	r'nard	r'nard	r'nard	r'nard
8f#	pas-	pas-	pas-	pas-	pas-	pas-	pas-	pas-	pas-
4a	-ser,	-ser,	-ser,	-ser,	-ser,	-ser,	-ser,	-ser,	-ser,
!!LO:PB:g=original
*	*pline:3	*pline:4	*pline:5	*pline:6	*pline:7	*pline:8	*pline:9	*pline:10	*pline:11
=9	=9	=9	=9	=9	=9	=9	=9	=9	=9
8a	Dans	Trois	Deux	Ce-	"Où	."Chez	"Vous	"Et	Les
16b/	mon	ca-	à	-lui	i-	moi,	y	un	ca-
16cc#	che-	-va-	che-	d'à	-rons-	Mon-	trouv'-	bon	-va-
8dd	-min	-liers	-val	pied	nous	-sieur,	rez	lit	-liers
8dd	j'ai	fort	et	m'a	ce	si	un	pour	ont
=10	=10	=10	=10	=10	=10	=10	=10	=10	=10
8dd	ren-	bien	l'autre	de-	soir	vous	bon	vous	ac-
8dd	-con-	mon-	à	-man-	cou-	vou-	sou-	cou-	-cep-
4dd	-tré....	-tés.	pied.	-der....	-cher?"	-lez."	-per."	-cher."	-té.
*	*pline:2r	*pline:2r	*pline:2r	*pline:2r	*pline:2r	*pline:2r	*pline:2r	*pline:2r	*pline:2r
=11	=11	=11	=11	=11	=11	=11	=11	=11	=11
8b	J'ai	J'ai	J'ai	J'ai	J'ai	J'ai	J'ai	J'ai	J'ai
16cc#	vu	vu	vu	vu	vu	vu	vu	vu	vu
16dd	le	le	le	le	le	le	le	le	le
8ee	loup,	loup,	loup,	loup,	loup,	loup,	loup,	loup,	loup,
8ee	le	le	le	le	le	le	le	le	le
!!LO:PB:g=original
=12	=12	=12	=12	=12	=12	=12	=12	=12	=12
8eeq	.	.	.	.	.	.	.	.	.
8dd	r'nard	r'nard	r'nard	r'nard	r'nard	r'nard	r'nard	r'nard	r'nard
8cc#	pas-	pas-	pas-	pas-	pas-	pas-	pas-	pas-	pas-
4b	-ser.	-ser.	-ser.	-ser.	-ser.	-ser.	-ser.	-ser.	-ser.
!LO:TX:a:t=D.C.	!	!	!	!	!	!	!	!	!
==	==	==	==	==	==	==	==	==	==
*-	*-	*-	*-	*-	*-	*-	*-	*-	*-
!!!EED-1: Samuel Boone
!!!EEV-1: 2026/02/09
